X:89
T:Kettle Drum
P:AABB
M:C|
L:1/8
Q:100
K:DDor
efgf e2d2|A2f2 A2f2|efgf e2d2|A2f2 d4||
efga g3a|g3a g2e2|fg a2 a2 ^g2|a6 fg|agfe defd|e4 A4|F2A2 A2 f2|d8||

